!!!OTL: Shiba shanzi
!!!ARE: Asia, China,ÿHenan, Xinxian
!! IV, 150
!!!SCT: C1659
!!!YEM: Copyright 1995, estate of Helmut Schaffrath.
**kern
*ICvox
*Ivox
*M2/4
*k[b-]
*F:
{8d
8g
8d
16d
16c
=1
4c
4d}
=2
{8d
8f
16d
16f
16d
16f
=3
4g
4g}
=4
{8g
8g
8g
16f
16d
=5
4c
4d}
=6
{8d
8g
8d
8g
=7
16d
16e
16d
16c
4c}
==
!!!AGN: Xiaodiao
!!!AMT: simple duple
!!!AIN: vox
!!!EED: Helmut Schaffrath
!!!EEV: 1.0
*-
